src/pos-icons/cube-send.svg

<svg height="24" viewBox="0 0 24 24" width="24" xmlns="http://www.w3.org/2000/svg"><path d="m16 4-7 4.04v7.92l7 4.04 7-4.04v-7.92m-7-1.73 3.8 2.19-3.8 2.19-3.79-2.19m-12.21-1.5v2h7v-2m4 3.11 4 2.31v4.69l-4-2.3m10-4.7v4.7l-4 2.3v-4.69m-15-1.42v2h5v-2m-3 4v2h3v-2"/></svg>

<?xml version="1.0" encoding="UTF-8"?><!DOCTYPE svg PUBLIC "-//W3C//DTD SVG 1.1//EN" "http://www.w3.org/Graphics/SVG/1.1/DTD/svg11.dtd"><svg xmlns="http://www.w3.org/2000/svg" xmlns:xlink="http://www.w3.org/1999/xlink" version="1.1" id="mdi-cube-send" width="24" height="24" viewBox="0 0 24 24"><path d="M16,4L9,8.04V15.96L16,20L23,15.96V8.04M16,6.31L19.8,8.5L16,10.69L12.21,8.5M0,7V9H7V7M11,10.11L15,12.42V17.11L11,14.81M21,10.11V14.81L17,17.11V12.42M2,11V13H7V11M4,15V17H7V15" /></svg>
